svg/sexual_reproductive_health_outline.svg

<?xml version="1.0" encoding="UTF-8" standalone="no"?>
<!-- Created with Inkscape (http://www.inkscape.org/) -->
<svg id="svg8" xmlns:rdf="http://www.w3.org/1999/02/22-rdf-syntax-ns#" xmlns="http://www.w3.org/2000/svg" xmlns:osb="http://www.openswatchbook.org/uri/2009/osb" height="48" width="48" version="1.1" xmlns:cc="http://creativecommons.org/ns#" viewBox="0 0 12.7 12.7" xmlns:dc="http://purl.org/dc/elements/1.1/">
 <title id="title4753">UIO-icon</title>
 <metadata id="metadata5">
  <rdf:RDF>
   <cc:Work rdf:about="">
    <dc:format>image/svg+xml</dc:format>
    <dc:type rdf:resource="http://purl.org/dc/dcmitype/StillImage"/>
    <dc:title>UIO-icon</dc:title>
    <dc:creator>
     <cc:Agent>
      <dc:title>Joaquín Urbano</dc:title>
     </cc:Agent>
    </dc:creator>
    <dc:rights>
     <cc:Agent>
      <dc:title>GPL</dc:title>
     </cc:Agent>
    </dc:rights>
   </cc:Work>
  </rdf:RDF>
 </metadata>
 <g id="layer1" transform="translate(0,-284.3)">
  <g id="layer1-7" transform="translate(-39.224 9.8557)">
   <path id="path1849" fill="#333" d="m36.367 4.0898-1.7871 1.7871 2.8066 2.8066-4.7207 4.7168c-1.913-1.403-4.208-2.166-6.504-2.166-5.8663 0-10.711 4.7198-10.711 10.586 0 2.4771 0.86055 4.7091 2.2461 6.5078 0.15182-0.078903 0.29485-0.17467 0.44336-0.25977a10.173 10.144 0 0 1 -2.1484 -6.2109 10.173 10.144 0 0 1 10.172 -10.145 10.173 10.144 0 0 1 6.5273 2.3633l5.426-5.3738-2.814-2.8223 1.0703-1.0703 2.8164 2.6875 2.2715-2.2871 1.0762 1.0625-2.3047 2.418 2.6699 2.6797-1.0488 1.0547-2.676-2.674-5.463 5.326a10.173 10.144 0 0 1 2.623 6.7812 10.173 10.144 0 0 1 -10.174 10.143 10.173 10.144 0 0 1 -5.004 -1.336c-0.15819 0.10718-0.31106 0.22304-0.47266 0.32422 1.6124 0.96235 3.4727 1.5449 5.4746 1.5449 5.8663 0 10.713-4.719 10.713-10.713 0-2.4229-0.89546-4.8468-2.4258-6.7598l4.725-4.589 2.678 2.677 1.783-1.783-2.682-2.6814 2.299-2.4199-1.787-1.7871-2.291 2.2949zm-21.07 6.9672c-1.6771-0.067404-3.3718 0.26728-4.9316 1.0117-5.221 2.4923-7.4332 8.7447-4.9395 13.965 0.98745 2.0546 2.6199 3.7298 4.6465 4.7734l-2.7578 7.8027-2.9492-3.0098 2.3047 8.3105 7.1738-4.959-4.1719 0.4375 2.7207-7.6973c2.3458 0.57384 4.8184 0.31692 6.998-0.72266 5.2182-2.4931 7.4272-8.7421 4.9355-13.961-0.35353-0.741-0.8142-1.4147-1.3242-2.0469-0.15999 0.088218-0.30521 0.19337-0.45898 0.28906a9.9445 9.9445 0 0 1 2.2598 6.2949 9.9445 9.9445 0 0 1 -9.9453 9.9434 9.9445 9.9445 0 0 1 -2.796 -0.407l-3.105 8.918 2.932-0.326s-4.8296 3.4719-4.918 3.4277c-0.088388-0.044194-1.5781-5.7148-1.5781-5.7148l2.1032 2.144 3.2129-8.959a9.9445 9.9445 0 0 1 -5.7949 -9.025 9.9445 9.9445 0 0 1 9.9429 -9.945 9.9445 9.9445 0 0 1 4.737 1.224c0.1744-0.12398 0.34168-0.25726 0.52148-0.375-1.4912-0.86089-3.1471-1.3257-4.8184-1.3926zm-0.43945 1.9531a8.5346 8.5346 0 0 0 -8.5332 8.5352 8.5346 8.5346 0 0 0 8.5332 8.5352 8.5346 8.5346 0 0 0 8.5352 -8.5352 8.5346 8.5346 0 0 0 -2.0039 -5.4785c-0.1341 0.10751-0.27424 0.20813-0.4043 0.32031 0.43325 0.51479 0.81023 1.0725 1.1035 1.6855 1.9029 3.9837 0.21453 8.7561-3.7695 10.658-3.984 1.903-8.7528 0.215-10.655-3.769-1.9009-3.984-0.2145-8.754 3.77-10.654 2.0659-0.98544 4.4311-1.0182 6.5078-0.1543 0.13781-0.12914 0.28876-0.24495 0.43164-0.36914a8.5346 8.5346 0 0 0 -3.5156 -0.77344zm11.307 0.14258a8.7308 8.7056 0 0 0 -8.7285 8.7051 8.7308 8.7056 0 0 0 1.9199 5.4141c0.14857-0.11054 0.30327-0.2102 0.44727-0.32812-1.1077-1.4115-1.8008-3.1751-1.8008-5.123 0-4.4633 3.6967-8.1641 8.1602-8.1641s8.1621 3.7008 8.1621 8.1641c0 4.5912-3.6986 8.2871-8.1621 8.2871-1.1825 0-2.3015-0.27354-3.3223-0.74023-0.13431 0.12095-0.27806 0.22811-0.41602 0.34375a8.7308 8.7056 0 0 0 3.7402 0.85352 8.7308 8.7056 0 0 0 8.7324 -8.707 8.7308 8.7056 0 0 0 -8.7324 -8.7051z" transform="matrix(.26458 0 0 .26458 39.224 274.44)"/>
  </g>
 </g>
</svg>

<svg width="48" height="48" viewBox="0 0 48 48" fill="none" xmlns="http://www.w3.org/2000/svg">
<path d="M36.3664 4.07349L34.5794 5.86056L37.3859 8.66713L32.6653 13.3839C30.7523 11.9809 28.4573 11.2179 26.1614 11.2179C20.2951 11.2179 15.4505 15.9376 15.4505 21.8038C15.4505 24.2808 16.311 26.5128 17.6966 28.3115C17.8484 28.2326 17.9914 28.1368 18.1399 28.0517C16.7527 26.2764 15.9969 24.0915 15.9915 21.8409C15.9914 20.5088 16.2544 19.1897 16.7655 17.9589C17.2766 16.7282 18.0259 15.6098 18.9704 14.6678C19.915 13.7258 21.0363 12.9785 22.2705 12.4686C23.5047 11.9587 24.8275 11.6962 26.1634 11.696C28.5498 11.696 30.8602 12.5325 32.6906 14.0593L38.1166 8.68556L35.3026 5.86329L36.3729 4.79301L39.1893 7.48047L41.4607 5.1934L42.5369 6.25589L40.2322 8.67386L42.9021 11.3535L41.8533 12.4082L39.1774 9.73425L33.7144 15.0602C35.3987 16.9199 36.333 19.3355 36.3374 21.8413C36.3371 24.5316 35.2651 27.1116 33.3571 29.0138C31.4492 30.916 28.8615 31.9844 26.1635 31.9842C24.4079 31.9769 22.684 31.5166 21.1596 30.6482C21.0014 30.7554 20.8485 30.8712 20.6869 30.9724C22.2993 31.9347 24.1596 32.5173 26.1615 32.5173C32.0277 32.5173 36.8743 27.7983 36.8743 21.8044C36.8743 19.3815 35.9789 16.9577 34.4486 15.0447L39.1735 10.4558L41.8515 13.1327L43.6344 11.3497L40.9525 8.66838L43.2515 6.24851L41.4645 4.46143L39.1735 6.7563L36.3664 4.07349ZM15.2967 11.0406C13.6196 10.9732 11.9249 11.3079 10.3652 12.0523C5.14422 14.5446 2.93205 20.7969 5.42572 26.0171C6.41316 28.0717 8.04559 29.7469 10.0722 30.7905L7.3144 38.5931L4.36523 35.5833L6.66991 43.8937L13.8436 38.9348L9.67177 39.3722L12.3924 31.675C14.7382 32.2489 17.2108 31.992 19.3903 30.9524C24.6085 28.4593 26.8175 22.2104 24.3258 16.9916C23.9723 16.2506 23.5116 15.5769 23.0016 14.9447C22.8416 15.0329 22.6964 15.1381 22.5426 15.2337C24.0001 17.0082 24.7985 19.2323 24.8024 21.5286C24.8021 24.1659 23.7542 26.6952 21.8891 28.5599C20.024 30.4246 17.4946 31.4721 14.8572 31.4718C13.9106 31.4699 12.9691 31.3329 12.0613 31.0648L8.9563 39.9827L11.8883 39.6567C11.8883 39.6567 7.05872 43.1286 6.97032 43.0844C6.88194 43.0402 5.39224 37.3697 5.39224 37.3697L7.49541 39.5136L10.7083 30.5548C8.98085 29.7616 7.51694 28.49 6.48992 26.8905C5.4629 25.291 4.91581 23.4307 4.91345 21.5299C4.91332 18.8926 5.96075 16.3634 7.82535 14.4984C9.68995 12.6334 12.219 11.5854 14.8562 11.585C16.5125 11.5921 18.1408 12.0129 19.5932 12.809C19.7676 12.685 19.9348 12.5517 20.1146 12.434C18.6235 11.5731 16.9676 11.1083 15.2963 11.0414L15.2967 11.0406ZM14.8573 12.9937C12.5939 12.994 10.4234 13.8935 8.82315 15.4941C7.22291 17.0947 6.324 19.2654 6.32416 21.5288C6.324 23.7921 7.22291 25.9628 8.82315 27.5635C10.4234 29.1641 12.5939 30.0635 14.8573 30.0639C15.9781 30.0639 17.088 29.8432 18.1236 29.4143C19.1591 28.9854 20.1001 28.3567 20.8927 27.5642C21.6852 26.7716 22.3139 25.8307 22.7428 24.7951C23.1717 23.7595 23.3924 22.6496 23.3923 21.5288C23.3886 19.5239 22.6792 17.5844 21.3885 16.0503C21.2544 16.1578 21.1142 16.2585 20.9842 16.3706C21.4174 16.8854 21.7944 17.4431 22.0877 18.0561C23.9905 22.0398 22.3022 26.8121 18.3182 28.714C14.3343 30.617 9.56552 28.929 7.66334 24.945C5.76247 20.9611 7.44885 16.1911 11.4333 14.2912C13.4992 13.3057 15.8643 13.273 17.941 14.1369C18.0788 14.0077 18.2298 13.8919 18.3726 13.7677C17.2691 13.2629 16.0706 12.9992 14.8571 12.9943L14.8573 12.9937ZM26.1641 13.1363C23.8491 13.1369 21.6291 14.0542 19.9922 15.6867C18.3554 17.3191 17.4359 19.5329 17.4357 21.8412C17.4431 23.8105 18.1199 25.7191 19.3556 27.2553C19.5042 27.1447 19.6589 27.0451 19.8029 26.9272C18.6952 25.5157 18.0021 23.7521 18.0021 21.8042C18.0021 17.341 21.6987 13.6402 26.1622 13.6402C30.6256 13.6402 34.3242 17.341 34.3242 21.8042C34.3242 26.3954 30.6256 30.0912 26.1622 30.0912C24.9797 30.0912 23.8607 29.8177 22.8399 29.351C22.7056 29.472 22.5619 29.5791 22.4239 29.6947C23.5917 30.2523 24.8693 30.5438 26.1641 30.5483C27.3108 30.5485 28.4464 30.3234 29.506 29.8859C30.5655 29.4484 31.5282 28.8071 32.3391 27.9985C33.15 27.19 33.7932 26.2301 34.232 25.1736C34.6708 24.1171 34.8965 22.9848 34.8964 21.8414C34.8963 20.6981 34.6704 19.5659 34.2315 18.5097C33.7926 17.4535 33.1493 16.4938 32.3385 15.6854C31.5276 14.8771 30.5649 14.2359 29.5055 13.7985C28.4461 13.3612 27.3107 13.1362 26.1641 13.1364V13.1363Z" fill="#333333"/>
</svg>
